X: 30782
T: Osmosis, The
R: reel
M: 4/4
K: Gminor
|:DFGF GBcB|d2fd dcBG|FBde d2dB|FBdB cdBG|
DFGF GBcB|d2fd gfdc|B2dB cdBG|D(3DDDF G2GF:|
g2bg gfdc|B2dB cBGB|FBde d2dB|FBdB c2cf|
g2bg gfdc|B2dB cdBG|gfdc (3BcdBG|D(3DDDF G4|
g2ba agfg|d2fd gfdc|B3e dcBG|FBdB c3F|
DFGF GBcB|d2fd gfdc|B2dB cdBG|D(3DDDF G2GF||

